logo/codeclimate-icon.svg

<?xml version="1.0" encoding="UTF-8"?>
<svg width="256px" height="142px" viewBox="0 0 256 142" version="1.1" xmlns="http://www.w3.org/2000/svg" preserveAspectRatio="xMidYMid">
    <title>Code Climate</title>
    <g>
        <path d="M84.8414986,28.2992138 L113.613833,57.0715481 L142.386167,86.5816346 L169.682997,113.878465 L140.910663,141.913047 L113.613833,115.353969 L84.8414986,86.5816346 L76.7262248,93.221404 L39.8386167,130.846764 L28.7723343,141.913047 L0,113.878465 L10.3285303,101.336678 L84.8414986,28.2992138 Z M171.158501,-3.55271368e-15 L256,84.1037464 L227.227666,113.613833 L171.158501,57.5446686 L151.239193,77.4639769 L122.466859,48.6916427 L171.158501,-3.55271368e-15 Z" fill="#2B2B2B"></path>
    </g>
</svg>

<svg viewBox="0 0 256 142" xmlns="http://www.w3.org/2000/svg"><path fill="#2B2B2B" d="M84.84 28.29l28.77 28.77 28.77 29.51 27.29 27.29 -28.78 28.03 -27.3-26.56 -28.78-28.78 -8.12 6.63L39.8 130.8l-11.07 11.06 -28.78-28.04 10.32-12.55 74.51-73.04Zm86.31-28.3l84.84 84.1 -28.78 29.51 -56.07-56.07 -19.92 19.91 -28.78-28.78 48.69-48.7Z"/></svg>
